img/vk.svg

<svg width="64" height="65" viewBox="0 0 64 65" fill="none" xmlns="http://www.w3.org/2000/svg">
<circle cx="32.2261" cy="32.4553" r="31.6782" fill="#7294C7"/>
<path d="M47.7578 40.5574C47.7578 40.4259 47.6263 40.4259 47.6263 40.2944C47.1003 39.2424 45.9168 37.9274 44.3388 36.4809C43.5498 35.8234 43.1553 35.2974 42.8923 35.0344C42.4978 34.5084 42.4978 34.1139 42.6293 33.5879C42.7608 33.1934 43.2868 32.5359 44.2073 31.3524C44.7333 30.6948 44.9963 30.3004 45.3908 29.9059C47.3633 27.2758 48.2838 25.5663 48.0208 24.7773L47.8893 24.6458C47.7578 24.5143 47.6263 24.3828 47.3633 24.3828C47.1003 24.2513 46.7058 24.2513 46.3113 24.3828H41.3143C41.1828 24.3828 41.1828 24.3828 40.9198 24.3828C40.7883 24.3828 40.6568 24.3828 40.6568 24.3828H40.5253H40.3938L40.2623 24.5143C40.1308 24.6458 40.1307 24.6458 40.1307 24.7773C39.6047 26.2238 38.9472 27.4073 38.2897 28.7223C37.8952 29.3798 37.5007 30.0374 37.1062 30.5634C36.7117 31.0894 36.4487 31.4839 36.1857 31.7469C35.9227 32.0099 35.6597 32.1414 35.5282 32.4044C35.3967 32.5359 35.1337 32.6674 35.1337 32.5359C35.0022 32.5359 34.8707 32.5359 34.8707 32.4044C34.7392 32.2729 34.6077 32.1414 34.4762 32.0099C34.3447 31.8784 34.3447 31.6154 34.2132 31.3524C34.2132 31.0893 34.2132 30.8263 34.2132 30.6948C34.2132 30.5633 34.2132 30.1689 34.2132 29.9059C34.2132 29.5114 34.2132 29.2483 34.2132 29.1168C34.2132 28.7223 34.2132 28.1963 34.2132 27.6703C34.2132 27.1443 34.2132 26.7498 34.2132 26.4868C34.2132 26.2238 34.2132 25.8293 34.2132 25.5663C34.2132 25.1718 34.2132 24.9088 34.2132 24.7773C34.2132 24.6458 34.0817 24.3828 34.0817 24.2513C33.9502 24.1198 33.8187 23.9883 33.6872 23.8568C33.5557 23.7253 33.2927 23.7253 33.1612 23.5938C32.5037 23.4623 31.7147 23.3308 30.7942 23.3308C28.6902 23.3308 27.2437 23.4623 26.7177 23.7253C26.4547 23.8568 26.1917 23.9883 26.0602 24.2513C25.7972 24.5143 25.7972 24.6458 25.9287 24.6458C26.5862 24.7773 27.1122 25.0403 27.3752 25.4348L27.5067 25.6978C27.6382 25.8293 27.6382 26.0923 27.7697 26.4868C27.9012 26.8813 27.9012 27.2758 27.9012 27.8018C27.9012 28.5908 27.9012 29.3798 27.9012 29.9059C27.9012 30.5634 27.7697 30.9578 27.7697 31.3524C27.7697 31.7469 27.6382 32.0099 27.5067 32.1414C27.3752 32.4044 27.3752 32.5359 27.2437 32.5359C27.2437 32.5359 27.2437 32.6674 27.1122 32.6674C26.9807 32.6674 26.8492 32.7989 26.5862 32.7989C26.4547 32.7989 26.1917 32.6674 26.0602 32.5359C25.7972 32.4044 25.5342 32.1414 25.4027 31.8784C25.1397 31.6154 24.8767 31.2208 24.6137 30.6948C24.3507 30.1688 23.9561 29.6428 23.6931 28.8538L23.4302 28.3278C23.2987 28.0648 23.0357 27.5388 22.7727 26.8813C22.5097 26.2238 22.2466 25.6978 21.9836 25.0403C21.8521 24.7773 21.7207 24.6458 21.5892 24.5143H21.4577C21.4577 24.5143 21.3261 24.3828 21.1946 24.3828C21.0631 24.3828 20.9316 24.2513 20.8001 24.2513H16.0661C15.5401 24.2513 15.2771 24.3828 15.1456 24.5143L15.0141 24.6458C15.0141 24.6458 15.0141 24.7773 15.0141 24.9088C15.0141 25.0403 15.0141 25.1718 15.1456 25.4348C15.8031 27.0128 16.5921 28.5908 17.3811 30.1689C18.1701 31.6154 18.9591 32.9304 19.4851 33.8509C20.1426 34.7714 20.6686 35.6919 21.3261 36.4809C21.9836 37.2699 22.3781 37.7959 22.5096 38.0589C22.7726 38.3219 22.9041 38.4534 23.0356 38.5849L23.4302 38.9794C23.6932 39.2424 24.0877 39.6369 24.6137 40.0314C25.1397 40.4259 25.7972 40.8204 26.4547 41.2149C27.1122 41.6094 27.9012 41.8724 28.6902 42.1354C29.6107 42.3984 30.3997 42.5299 31.1887 42.3984H33.1612C33.5557 42.3984 33.8187 42.2669 34.0817 42.0039L34.2132 41.8724C34.2132 41.7409 34.3447 41.7409 34.3447 41.6094C34.3447 41.4779 34.3447 41.3464 34.3447 41.0834C34.3447 40.5574 34.3447 40.1629 34.4762 39.7684C34.6077 39.3739 34.6077 39.1109 34.7392 38.8479C34.8707 38.5849 35.0022 38.4534 35.1337 38.3219C35.2652 38.1904 35.3967 38.0589 35.3967 38.0589H35.5282C35.7912 37.9274 36.1857 38.0589 36.4487 38.3219C36.8432 38.5849 37.2377 38.9794 37.5007 39.3739C37.7637 39.7684 38.1583 40.1629 38.6843 40.6889C39.2103 41.2149 39.6048 41.6094 39.8678 41.7409L40.2623 42.0039C40.5253 42.1354 40.7883 42.2669 41.1828 42.3984C41.5773 42.5299 41.8403 42.5299 42.1033 42.5299L46.5743 42.3984C46.9688 42.3984 47.3633 42.2669 47.6263 42.1354C47.8893 42.0039 48.0208 41.8724 48.0208 41.6094C48.0208 41.4779 48.0208 41.2149 48.0208 41.0834C47.7578 40.8204 47.7578 40.6889 47.7578 40.5574Z" fill="white"/>
</svg>

<svg width="64" height="65" fill="none" xmlns="http://www.w3.org/2000/svg"><circle cx="32.226" cy="32.455" r="31.678" fill="#7294C7"/><path d="M47.758 40.557c0-.131-.132-.131-.132-.263-.526-1.052-1.71-2.367-3.287-3.813-.79-.658-1.184-1.184-1.447-1.447-.394-.526-.394-.92-.263-1.446.132-.395.658-1.052 1.578-2.236.526-.657.79-1.052 1.184-1.446 1.972-2.63 2.893-4.34 2.63-5.129l-.132-.131c-.131-.132-.263-.263-.526-.263-.263-.132-.657-.132-1.052 0h-5.917l-.132.131c-.131.132-.131.132-.131.263-.526 1.447-1.184 2.63-1.841 3.945-.395.658-.79 1.315-1.184 1.841-.394.526-.657.92-.92 1.184-.263.263-.526.394-.658.657-.131.132-.394.263-.394.132-.132 0-.263 0-.263-.132l-.395-.394c-.131-.132-.131-.395-.263-.658v-.657-.79-.788-1.447-1.183-.92-.79c0-.131-.131-.394-.131-.526l-.395-.394c-.131-.132-.394-.132-.526-.263-.657-.132-1.446-.263-2.367-.263-2.104 0-3.55.131-4.076.394-.263.132-.526.263-.658.526-.263.263-.263.395-.131.395.657.131 1.183.394 1.446.789l.132.263c.131.131.131.394.263.789.131.394.131.789.131 1.315v2.104c0 .657-.131 1.052-.131 1.446 0 .395-.132.658-.263.79-.132.262-.132.394-.263.394 0 0 0 .131-.132.131-.131 0-.263.132-.526.132-.131 0-.394-.132-.526-.263a1.585 1.585 0 01-.657-.658c-.263-.263-.526-.657-.79-1.183-.262-.526-.657-1.052-.92-1.841l-.263-.526c-.131-.263-.394-.79-.657-1.447s-.526-1.183-.79-1.84a1.815 1.815 0 00-.394-.527h-.131s-.132-.131-.263-.131c-.132 0-.263-.132-.395-.132h-4.734c-.526 0-.789.132-.92.263l-.132.132v.263c0 .131 0 .263.132.526.657 1.578 1.446 3.156 2.235 4.734.79 1.446 1.578 2.761 2.104 3.682.658.92 1.184 1.84 1.841 2.63.658.789 1.052 1.315 1.184 1.578l.526.526.394.394c.263.263.658.658 1.184 1.052.526.395 1.183.79 1.84 1.184.658.394 1.447.657 2.236.92.92.263 1.71.395 2.499.263h1.972c.395 0 .658-.131.92-.394l.132-.132c0-.131.132-.131.132-.263v-.526c0-.526 0-.92.131-1.315.132-.394.132-.657.263-.92.132-.263.263-.395.395-.526l.263-.263h.131c.263-.132.658 0 .92.263.395.263.79.657 1.053 1.052.263.394.657.789 1.183 1.315.526.526.92.92 1.184 1.052l.394.263c.263.131.526.263.92.394.395.132.658.132.921.132l4.471-.132c.395 0 .79-.131 1.052-.263.263-.131.395-.263.395-.526v-.526c-.263-.263-.263-.394-.263-.526z" fill="#fff"/></svg>
